X:671
T:
N:
S:Ur notboken från Gotlands fornsal.
R:kadrilj
O:Gotland
M:2/4
L:1/16
K:G
D2|GABc d2ef|e2fg d4|GABc d2g2|bgaf g2d2|GABc d2ef|e2fg d4|GABc d2g2|bgaf
g2::D2|GABc d2c2|B2c2 A4|GABc d2d2|c2d2 B4|GABc d2gg|e2fg d4|GABc d2g2|bgaf
g2::d2|b6 a2|g2f2g2e2|d2B2c2A2|GFGA B2d2|b6 a2|g2f2g2e2|d2B2c2A2|G4
z2::g2|[Af]2[Af][Af] [Af]2[Af]2|[G,DBg]2[Bg][Bg] [Bg]2[Bg]2|[DAf]2[Af][Af]
[G,DBg]6 d2|b6 a2|g2f2g2e2|d3Bc2A2|G4 z2:| % tryckfel: taktlängd

